svgs/wordweb.svg

<svg id="Layer_1" data-name="Layer 1" xmlns="http://www.w3.org/2000/svg" viewBox="0 0 24 24">
  <path d="M14.705,2.00525A7.295,7.295,0,1,0,22,9.30029,7.29525,7.29525,0,0,0,14.705,2.00525Zm.0866,13.10266a5.89444,5.89444,0,1,1,5.89466-5.89423A5.89424,5.89424,0,0,1,14.79156,15.10791ZM17.0647,6.66473h1.70324l-1.27868,5.76246H15.7146L14.705,8.83307l-1.00959,3.59412H11.92072L10.642,6.66473h1.70331l.60492,3.14246.88287-3.14246H15.5769l.88288,3.14246ZM8.96149,15.03326a7.50778,7.50778,0,0,0,.8377.719s-1.64886,1.73132-2.39074,2.65552c-.9245,1.15173-1.96436,2.72576-2.25531,3.01672a1.56384,1.56384,0,0,1-1.31519.57019,1.81779,1.81779,0,0,1-1.28442-.55353A1.81774,1.81774,0,0,1,2,20.1568a1.56388,1.56388,0,0,1,.57019-1.31525c.291-.29089,1.865-1.33081,3.01672-2.25531.92426-.74188,2.65552-2.39074,2.65552-2.39074A7.502,7.502,0,0,0,8.96149,15.03326Z"/>
</svg>

<svg xmlns="http://www.w3.org/2000/svg" data-name="Layer 1" viewBox="0 0 24 24"><path d="M14.705 2.005A7.295 7.295 0 1 0 22 9.3a7.295 7.295 0 0 0-7.295-7.295m.087 13.103a5.894 5.894 0 1 1 5.894-5.894 5.894 5.894 0 0 1-5.894 5.894m2.273-8.443h1.703l-1.279 5.762h-1.774l-1.01-3.594-1.01 3.594h-1.774l-1.279-5.762h1.703l.605 3.142.883-3.142h1.744l.883 3.142ZM8.96 15.033a7.508 7.508 0 0 0 .838.72s-1.649 1.73-2.39 2.655c-.925 1.152-1.965 2.726-2.256 3.016a1.564 1.564 0 0 1-1.315.57 1.818 1.818 0 0 1-1.284-.553A1.818 1.818 0 0 1 2 20.157a1.564 1.564 0 0 1 .57-1.315c.291-.291 1.865-1.331 3.017-2.256.924-.742 2.655-2.39 2.655-2.39a7.502 7.502 0 0 0 .72.837"/></svg>
